X:804
T:Tricky Reel, The
T:27th of December, The
R:reel
C:Jeff Lindqvist, Visby, Sweden
H:Dec 27, -99
Z:id:hn-reel-804, transcribed by Anders Clarh\"all
M:C|
L:1/8
K:Gm
GD~D2 B2AB|GFDF ~E2FE|DGBD GBdg|fdec dBcA|
~B2dB ~A2cA|GBAF GFDF|~E2GE DGBd|cAFA GABA:|
|:~G2g^f g=fd^c|cBGF GABd|cA~A2 FGAc|f=efd cAFA|
GABG ^FAdF|FGAF =EGcE|EFGE DGBd|cAFA GABA:|
